packages/katcn/src/icons/svg/micOff-solid.svg

<svg width="24" height="25" viewBox="0 0 24 25" fill="none" xmlns="http://www.w3.org/2000/svg">
<path d="M15.6 12.308C15.8 12.508 16 12.608 16.3 12.608C16.4 12.608 16.5 12.608 16.6 12.608C16.9 12.508 17.2 12.208 17.3 11.908C17.4 11.508 17.5 11.008 17.5 10.608V6.60801C17.5 5.20801 16.9 3.80801 15.9 2.80801C14.9 1.80801 13.5 1.20801 12.1 1.20801C10.3 1.20801 8.79999 2.00801 7.79999 3.30801C7.39999 3.70801 7.49999 4.20801 7.79999 4.60801L15.6 12.308Z" fill="black"/>
<path d="M18.5 15.208C18.7 15.308 18.8 15.308 19 15.308C19.4 15.308 19.7 15.108 19.9 14.808C20.6 13.508 21 12.008 21 10.508C21 9.908 20.6 9.508 20 9.508C19.4 9.508 19 9.908 19 10.508C19 11.708 18.7 12.808 18.2 13.808C17.8 14.308 18 14.908 18.5 15.208Z" fill="black"/>
<path d="M22.6 21.508L14.8 13.708L8.3 7.20801L2.7 1.60801C2.3 1.20801 1.7 1.20801 1.3 1.60801C0.9 2.00801 0.9 2.60801 1.3 3.00801L6.6 8.30801V10.508C6.6 13.508 9 15.908 12 15.908C12.6 15.908 13.3 15.808 13.9 15.608L15.1 16.808C14.2 17.308 13.1 17.508 12.1 17.508C10.2 17.508 8.5 16.808 7.2 15.508C5.9 14.208 5.2 12.408 5.2 10.608C5.2 10.008 4.8 9.60801 4.2 9.60801C3.6 9.60801 3.2 10.008 3.2 10.608C3.2 13.008 4.1 15.208 5.8 16.908C7.1 18.308 9 19.208 11 19.408V22.208C11 22.808 11.4 23.208 12 23.208C12.6 23.208 13 22.808 13 22.208V19.408C14.2 19.308 15.4 18.908 16.5 18.208L21.2 22.908C21.4 23.108 21.7 23.208 21.9 23.208C22.1 23.208 22.4 23.108 22.6 22.908C23 22.508 23 21.908 22.6 21.508Z" fill="black"/>
</svg>

<svg xmlns="http://www.w3.org/2000/svg" fill="none" viewBox="0 0 24 25"><path fill="#000" d="M15.6 12.308c.2.2.4.3.7.3h.3c.3-.1.6-.4.7-.7.1-.4.2-.9.2-1.3v-4c0-1.4-.6-2.8-1.6-3.8s-2.4-1.6-3.8-1.6c-1.8 0-3.3.8-4.3 2.1-.4.4-.3.9 0 1.3zm2.9 2.9c.2.1.3.1.5.1.4 0 .7-.2.9-.5.7-1.3 1.1-2.8 1.1-4.3 0-.6-.4-1-1-1s-1 .4-1 1c0 1.2-.3 2.3-.8 3.3-.4.5-.2 1.1.3 1.4m4.1 6.3-7.8-7.8-6.5-6.5-5.6-5.6c-.4-.4-1-.4-1.4 0s-.4 1 0 1.4l5.3 5.3v2.2c0 3 2.4 5.4 5.4 5.4.6 0 1.3-.1 1.9-.3l1.2 1.2c-.9.5-2 .7-3 .7-1.9 0-3.6-.7-4.9-2s-2-3.1-2-4.9c0-.6-.4-1-1-1s-1 .4-1 1c0 2.4.9 4.6 2.6 6.3 1.3 1.4 3.2 2.3 5.2 2.5v2.8c0 .6.4 1 1 1s1-.4 1-1v-2.8c1.2-.1 2.4-.5 3.5-1.2l4.7 4.7c.2.2.5.3.7.3s.5-.1.7-.3c.4-.4.4-1 0-1.4"/></svg>
